src/food-drink/food-vegetable/1F954.svg

<svg id="emoji" viewBox="0 0 72 72" xmlns="http://www.w3.org/2000/svg">
  <g id="grid">
    <path fill="#b3b3b3" d="M68,4V68H4V4H68m4-4H0V72H72V0Z"/>
    <path fill="none" stroke="#00a5ff" stroke-miterlimit="10" stroke-width="0.1" d="M12.923,10.9583H59.0769A1.9231,1.9231,0,0,1,61,12.8814V59.0352a1.9231,1.9231,0,0,1-1.9231,1.9231H12.9231A1.9231,1.9231,0,0,1,11,59.0352V12.8813A1.923,1.923,0,0,1,12.923,10.9583Z"/>
    <rect x="16" y="4" rx="2.2537" width="40" height="64" fill="none" stroke="#00a5ff" stroke-miterlimit="10" stroke-width="0.1"/>
    <rect x="16" y="4" rx="2.2537" width="40" height="64" transform="translate(72) rotate(90)" fill="none" stroke="#00a5ff" stroke-miterlimit="10" stroke-width="0.1"/>
    <circle cx="36" cy="36" r="29" fill="none" stroke="#00a5ff" stroke-miterlimit="10" stroke-width="0.1"/>
  </g>
  <g id="color">
    <path fill="#A57939" stroke="none" stroke-linecap="round" stroke-linejoin="round" stroke-miterlimit="10" stroke-width="2" d="M59.0417,27.8733c0,18.2898-7.5955,27.2079-14.6746,31.5411c-6.1848,3.8041-11.9917,4.1064-11.9917,4.1064 c-10.8076,0-19.5746-8.767-19.5746-19.5746c0-6.6509,3.7337-11.4301,8.3765-16.0729C33.2467,15.804,31.9388,9.5079,42.8303,9.5079 c8.956,0,16.2114,7.2681,16.2114,16.224C59.0417,26.5381,59.0417,27.8733,59.0417,27.8733z"/>
    <path fill="#a57939" stroke="none" d="M59.0449,25.73c0,0.81,0,2.14,0,2.14c0,18.29-7.6,27.21-14.68,31.54 c-6.1801,3.81-11.9901,4.11-11.9901,4.11c-1.67,0-3.28-0.21-4.8199-0.6c31.56-8.62,25.35-49.89,25.35-49.89 C56.6449,16,59.0449,20.59,59.0449,25.73z"/>
    <circle cx="38.2737" cy="51.6496" r="3.2408" fill="#A57939" stroke="none" stroke-linecap="round" stroke-linejoin="round" stroke-miterlimit="10" stroke-width="2"/>
  </g>
  <g id="hair"/>
  <g id="skin"/>
  <g id="skin-shadow"/>
  <g id="line">
    <path fill="none" stroke="#000000" stroke-linecap="round" stroke-linejoin="round" stroke-miterlimit="10" stroke-width="2" d="M59.0417,27.8733c0,18.2898-7.5955,27.2079-14.6746,31.5411c-6.1848,3.8041-11.9917,4.1064-11.9917,4.1064 c-10.8076,0-19.5746-8.767-19.5746-19.5746c0-6.6509,3.7337-11.4301,8.3765-16.0729C33.2467,15.804,31.9388,9.5079,42.8303,9.5079 c8.956,0,16.2114,7.2681,16.2114,16.224C59.0417,26.5381,59.0417,27.8733,59.0417,27.8733z"/>
    <circle cx="39.534" cy="16.2145" r="1.2603" fill="#000000" stroke="none"/>
    <circle cx="38.2737" cy="51.6496" r="3.2408" fill="none" stroke="#000000" stroke-linecap="round" stroke-linejoin="round" stroke-miterlimit="10" stroke-width="2"/>
    <path fill="none" stroke="#000000" stroke-linecap="round" stroke-linejoin="round" stroke-miterlimit="10" stroke-width="2" d="M59.0417,27.8733c0,18.2898-7.5955,27.2079-14.6746,31.5411c-6.1848,3.8041-11.9917,4.1064-11.9917,4.1064 c-10.8076,0-19.5746-8.767-19.5746-19.5746c0-6.6509,3.7337-11.4301,8.3765-16.0729C33.2467,15.804,31.9388,9.5079,42.8303,9.5079 c8.956,0,16.2114,7.2681,16.2114,16.224C59.0417,26.5381,59.0417,27.8733,59.0417,27.8733z"/>
  </g>
</svg>

<svg viewBox="0 0 72 72" xmlns="http://www.w3.org/2000/svg"><path fill="#b3b3b3" d="M68 4v64H4V4h64m4-4H0v72h72V0z"/><path fill="none" stroke="#00a5ff" stroke-miterlimit="10" stroke-width=".1" d="M12.923 10.958h46.154A1.923 1.923 0 0161 12.881v46.154a1.923 1.923 0 01-1.923 1.923H12.923A1.923 1.923 0 0111 59.035V12.881a1.923 1.923 0 011.923-1.923z"/><rect x="16" y="4" rx="2.254" width="40" height="64" fill="none" stroke="#00a5ff" stroke-miterlimit="10" stroke-width=".1"/><rect x="16" y="4" rx="2.254" width="40" height="64" transform="rotate(90 36 36)" fill="none" stroke="#00a5ff" stroke-miterlimit="10" stroke-width=".1"/><circle cx="36" cy="36" r="29" fill="none" stroke="#00a5ff" stroke-miterlimit="10" stroke-width=".1"/><g stroke-linecap="round" stroke-miterlimit="10" stroke-width="6" stroke="#fff" fill="none" stroke-linejoin="round"><path d="M59.042 27.873c0 18.29-7.596 27.208-14.675 31.541-6.185 3.804-11.992 4.107-11.992 4.107-10.807 0-19.574-8.767-19.574-19.575 0-6.65 3.733-11.43 8.376-16.073C33.247 15.804 31.94 9.508 42.83 9.508c8.956 0 16.212 7.268 16.212 16.224v2.141z"/><circle cx="39.534" cy="16.215" r="1.26"/><circle cx="38.274" cy="51.65" r="3.241"/><path d="M59.042 27.873c0 18.29-7.596 27.208-14.675 31.541-6.185 3.804-11.992 4.107-11.992 4.107-10.807 0-19.574-8.767-19.574-19.575 0-6.65 3.733-11.43 8.376-16.073C33.247 15.804 31.94 9.508 42.83 9.508c8.956 0 16.212 7.268 16.212 16.224v2.141z"/></g><path fill="#A57939" d="M59.042 27.873c0 18.29-7.596 27.208-14.675 31.541-6.185 3.804-11.992 4.107-11.992 4.107-10.807 0-19.574-8.767-19.574-19.575 0-6.65 3.733-11.43 8.376-16.073C33.247 15.804 31.94 9.508 42.83 9.508c8.956 0 16.212 7.268 16.212 16.224v2.141z"/><path fill="#a57939" d="M59.045 25.73v2.14c0 18.29-7.6 27.21-14.68 31.54-6.18 3.81-11.99 4.11-11.99 4.11-1.67 0-3.28-.21-4.82-.6 31.56-8.62 25.35-49.89 25.35-49.89 3.74 2.97 6.14 7.56 6.14 12.7z"/><circle cx="38.274" cy="51.65" r="3.241" fill="#A57939"/><path fill="none" stroke="#000" stroke-linecap="round" stroke-linejoin="round" stroke-miterlimit="10" stroke-width="2" d="M59.042 27.873c0 18.29-7.596 27.208-14.675 31.541-6.185 3.804-11.992 4.107-11.992 4.107-10.807 0-19.574-8.767-19.574-19.575 0-6.65 3.733-11.43 8.376-16.073C33.247 15.804 31.94 9.508 42.83 9.508c8.956 0 16.212 7.268 16.212 16.224v2.141z"/><circle cx="39.534" cy="16.215" r="1.26"/><circle cx="38.274" cy="51.65" r="3.241" fill="none" stroke="#000" stroke-linecap="round" stroke-linejoin="round" stroke-miterlimit="10" stroke-width="2"/><path fill="none" stroke="#000" stroke-linecap="round" stroke-linejoin="round" stroke-miterlimit="10" stroke-width="2" d="M59.042 27.873c0 18.29-7.596 27.208-14.675 31.541-6.185 3.804-11.992 4.107-11.992 4.107-10.807 0-19.574-8.767-19.574-19.575 0-6.65 3.733-11.43 8.376-16.073C33.247 15.804 31.94 9.508 42.83 9.508c8.956 0 16.212 7.268 16.212 16.224v2.141z"/></svg>
